X: 37185
T: Sir Roger De Coverley
R: slip jig
M: 9/8
K: Dmajor
|:A|d2 d d2 B AFD|B2 e e2 d cBA|d2 d d2 B AA/B/c|d2 D DED D2:|
|:A|AFA BGB AFD|Bcd efd cBA|AF/G/A BG/A/B ABc|d2 D DED c2:|
|:e|agf g2 e fed|c2 e efd gg/f/e|agf gfe f2 e|d2 D DED c2:|

